X: 1810
T: Polska efter Snickar-Ersker
R: Polska
O: Ovanåker, Hälsingland
C: Snickar-Erik Olsson
M: 3/4
L: 1/8
Q: 1/4=110
K: Am
Z: [[http://www.youtube.com/watch?v=a00pjg5KNI4|Klipp på Youtube]]
|: A | AE/C/ A,C/E/ AB/c/ | cG/E/ CE/G/ cd/e/ | ed/c/ ce/g/ ga/b/ | c'b ag (3f/g/f/e |
AE/C/ A,C/E/ AB/c/ | cG/E/ CE/G/ cd/e/ | f/e/d/c/ B/A/^G/A/ B/c/e/c/| B/A/^G/B/A3 :|
|: A | Aa ag gf| df fe e>d | cB/c/ dc/d/ ef/g/ | gf/e/ de/f/ e2 |
Aa ag gf| df fe e>d | c/B/A/^G/ A/B/c/d/ ed/c/| B/A/^G/B/ A3 :|]
(:musicend:)
(:music:)
